X: 771
T: Ji fei
L: 1/8
M: 2/4
K: F
d f d c [I:setbarnb 1]| 
B2A G | 
F E D F | 
G4 | 
d f d c | 
B2A2 | 
G A d c | 
G2z2 | 
G z c z | 
G z c z | 
G2G c | 
F3E/ D/ | 
C3D | 
F3E/ D/ | 
C B, A, D | 
C4 |]

@@@ Tune index: 9645
